icons/podyssey.svg

<svg xmlns="http://www.w3.org/2000/svg" width="32" height="32" fill="none" viewBox="0 0 32 32">
  <g clip-path="url(#a)">
    <path fill="#F76C6C" d="M3.37 28.63C.91 26.17 0 22.17 0 16 0 9.83.91 5.82 3.37 3.37 5.82.91 9.82 0 16 0c6.18 0 10.18.91 12.63 3.37C31.09 5.83 32 9.83 32 16c0 6.17-.91 10.18-3.37 12.63C26.17 31.09 22.17 32 16 32c-6.17 0-10.18-.91-12.63-3.37Z"/>
    <path fill="#D5AC84" fill-rule="evenodd" d="M26.39 19.54c-.78 4.25-4.27 7.17-7.79 6.52-3.52-.65-5.74-4.62-4.96-8.87.78-4.25 4.27-7.17 7.79-6.52 3.52.65 5.74 4.62 4.96 8.87Z" clip-rule="evenodd"/>
    <path fill="#6AC5F7" fill-rule="evenodd" d="m9.16 12.31 12.82 16.76-16.91-9.31 4.09-7.45Z" clip-rule="evenodd"/>
    <path fill="#232C54" fill-rule="evenodd" d="M19.07 17.59c0 .33-.27.6-.6.6-.33 0-.6-.27-.6-.6 0-.33.27-.6.6-.6.33 0 .6.27.6.6Zm5.38.25c0 .29-.23.52-.52.52-.29 0-.52-.23-.52-.52 0-.29.23-.52.52-.52.29 0 .52.23.52.52Zm-3.26 3.33c.27 0 .49-.2.74-.29.17-.06.36-.06.53 0 .09.03.17.07.24.14.06.07.1.16.08.25-.02.13-.14.21-.26.27-.14.07-.3.12-.46.08-.1-.03-.19-.09-.29-.14-.12-.07-.26-.11-.4-.13-.06 0-.12-.01-.17-.05-.05-.04-.06-.12-.02-.15m-2.09 1.73c.24.11.47.21.71.32.19.08.41.17.6.09.15-.06.24-.21.34-.34.1-.13.24-.25.41-.23.15.02.25.15.34.27.09.12.22.24.37.22.21-.03.33-.32.54-.29.1.01.17.11.22.2.04.09.06.2.11.29.05.09.14.17.24.15-.2.29-.56.43-.91.52-.39.1-.82.18-1.2.04-.11-.04-.22-.09-.33-.15-.46-.24-.9-.51-1.33-.8a.325.325 0 0 1-.13-.13c-.03-.05-.03-.13.01-.17" clip-rule="evenodd"/>
    <path fill="#FFFFFE" fill-rule="evenodd" d="M16.87 5.85c0 .2-.42.36-.95.36s-.95-.16-.95-.36c0-.2.42-.36.95-.36s.95.16.95.36Z" clip-rule="evenodd"/>
    <path fill="#232C54" fill-rule="evenodd" d="M8.63 16.23c.08-.18.21-.32.31-.54.7-1.44-1.94-3.03-1.25-4.47.4-.85 1.64-.79 2.16-1.55.35-.52.25-1.25.3-1.9.09-1.31.88-2.52 2-3.05.69.57 1.63 1.17 2.36.7.25-.16.42-.42.58-.67.43-.66.87-1.36 1.52-1.78.65-.41 1.59-.46 2.13.14.43.48.53 1.25 1.02 1.65.91.74 2.26-.35 3.3.16.73.36.97 1.36 1 2.21.02.57.1 1.3.61 1.47.2.07.41.02.62.05.6.1.9.83 1.07 1.45.28 1.02.5 2.22-.13 3.02-.15.19-.35.34-.58.38-.61.09-1.05-.61-1.59-.95-.49-.31-1.14-.31-1.62.01-.3.2-.53.51-.88.6-.6.15-1.16-.45-1.77-.52-1.06-.11-1.53 1.12-2.34 1.53-.78.39-1.84-.33-2.49.25-.13.11-.21.27-.28.43-.49 1.05-.75 2.19-1.21 3.26-.21.49-.44.9-.8 1.29-.26.29-.35.95-.86.88-.26-.03-.57-.12-.83-.19-.62-.17-1.2-.51-1.63-.99-.41-.46-.68-1.04-.79-1.64-.06-.32-.07-.64-.03-.96.01-.11.04-.2.08-.29l.02.02Z" clip-rule="evenodd"/>
    <path fill="#F8D621" fill-rule="evenodd" d="M17.34 6.09c-4.98 2.17-6.04 6.16-6.04 6.16h.01l-.04.15c-1.82.52-3.14 2.74-3.04 5.36.1 2.95 1.96 5.27 4.14 5.2 2.18-.08 3.87-2.53 3.77-5.47-.06-1.86-.83-3.47-1.93-4.39v-.03c.66-2.15 2.24-3.67 3.78-4.7.04-.03.07-.05.11-.07.04-.02.07-.05.11-.07 1.98-1.25 3.56-.74 3.56-.74l-.03-.9c-1.3-.45-4.38-.5-4.38-.5h-.02Z" clip-rule="evenodd"/>
    <path fill="#FFFFFE" fill-rule="evenodd" d="M10.75 15.08s-1.65 2.44-.49 5.52c0 0 .41.22 1.01.22 0 0-.57-2.25-.24-2.47.15-.1.68-.02.88-.05.32-.06.65-.18.86-.44.5-.59.45-1.61.03-2.23-.22-.32-.55-.55-.92-.65-.31-.08-.87-.12-1.13.11v-.01Z" clip-rule="evenodd"/>
    <path fill="#6AC5F7" fill-rule="evenodd" d="M11.35 16.25s-.29.73-.3.74c-.04.1.48.18.53.16a.546.546 0 0 0 .34-.57c-.05-.25-.36-.3-.57-.33Z" clip-rule="evenodd"/>
    <path fill="#F8D621" fill-rule="evenodd" d="M25.78 14.25s3.42 4.48-.49 7.88c.09-.08.2-.96.24-1.12.14-.57.23-1.17.29-1.77.1-1.15.12-2.25.04-3.39-.04-.58-.2-1.05-.06-1.61l-.02.01Z" clip-rule="evenodd"/>
    <path fill="#232C54" fill-rule="evenodd" d="M25.84 15.28c-.69.03-1.39.04-2.08.08-.55.04-.8.34-.99.83-.08.2.24.29.32.09.01-.03.03-.07.04-.1l1.8-.49c.31-.03.61-.06.92-.08.21-.02.22-.34 0-.33h-.01Zm-5.31.03c-.26-.2-.6-.18-.9-.16-.82.05-1.65.09-2.47.14-.21.01-.22.34 0 .33.35 0 .7-.01 1.06-.02l2.32.33s.02.05.02.07c.06.21.38.12.32-.09-.07-.23-.15-.46-.34-.62l-.01.02Z" clip-rule="evenodd"/>
  </g>
  <defs>
    <clipPath id="a">
      <path fill="#fff" d="M0 0h32v32H0z"/>
    </clipPath>
  </defs>
</svg>

<svg width="32" height="32" viewBox="0 0 32 32" fill="none" xmlns="http://www.w3.org/2000/svg">
<g clip-path="url(#clip0_606_7752)">
<path d="M3.37 28.63C0.91 26.17 0 22.17 0 16C0 9.83 0.91 5.82 3.37 3.37C5.82 0.91 9.82 0 16 0C22.18 0 26.18 0.91 28.63 3.37C31.09 5.83 32 9.83 32 16C32 22.17 31.09 26.18 28.63 28.63C26.17 31.09 22.17 32 16 32C9.83 32 5.82 31.09 3.37 28.63Z" fill="#F76C6C"/>
<path fill-rule="evenodd" clip-rule="evenodd" d="M26.39 19.54C25.61 23.79 22.12 26.71 18.6 26.06C15.08 25.41 12.86 21.44 13.64 17.19C14.42 12.94 17.91 10.02 21.43 10.67C24.95 11.32 27.17 15.29 26.39 19.54Z" fill="#D5AC84"/>
<path fill-rule="evenodd" clip-rule="evenodd" d="M9.16001 12.31L21.98 29.07L5.07001 19.76L9.16001 12.31Z" fill="#6AC5F7"/>
<path fill-rule="evenodd" clip-rule="evenodd" d="M19.07 17.59C19.07 17.92 18.8 18.19 18.47 18.19C18.14 18.19 17.87 17.92 17.87 17.59C17.87 17.26 18.14 16.99 18.47 16.99C18.8 16.99 19.07 17.26 19.07 17.59Z" fill="#232C54"/>
<path fill-rule="evenodd" clip-rule="evenodd" d="M24.45 17.84C24.45 18.13 24.22 18.36 23.93 18.36C23.64 18.36 23.41 18.13 23.41 17.84C23.41 17.55 23.64 17.32 23.93 17.32C24.22 17.32 24.45 17.55 24.45 17.84Z" fill="#232C54"/>
<path fill-rule="evenodd" clip-rule="evenodd" d="M21.19 21.17C21.46 21.17 21.68 20.97 21.93 20.88C22.1 20.82 22.29 20.82 22.46 20.88C22.55 20.91 22.63 20.95 22.7 21.02C22.76 21.09 22.8 21.18 22.78 21.27C22.76 21.4 22.64 21.48 22.52 21.54C22.38 21.61 22.22 21.66 22.06 21.62C21.96 21.59 21.87 21.53 21.77 21.48C21.65 21.41 21.51 21.37 21.37 21.35C21.31 21.35 21.25 21.34 21.2 21.3C21.15 21.26 21.14 21.18 21.18 21.15" fill="#232C54"/>
<path fill-rule="evenodd" clip-rule="evenodd" d="M19.09 22.88C19.33 22.99 19.56 23.09 19.8 23.2C19.99 23.28 20.21 23.37 20.4 23.29C20.55 23.23 20.64 23.08 20.74 22.95C20.84 22.82 20.98 22.7 21.15 22.72C21.3 22.74 21.4 22.87 21.49 22.99C21.58 23.11 21.71 23.23 21.86 23.21C22.07 23.18 22.19 22.89 22.4 22.92C22.5 22.93 22.57 23.03 22.62 23.12C22.66 23.21 22.68 23.32 22.73 23.41C22.78 23.5 22.87 23.58 22.97 23.56C22.77 23.85 22.41 23.99 22.06 24.08C21.67 24.18 21.24 24.26 20.86 24.12C20.75 24.08 20.64 24.03 20.53 23.97C20.07 23.73 19.63 23.46 19.2 23.17C19.15 23.14 19.1 23.1 19.07 23.04C19.04 22.99 19.04 22.91 19.08 22.87" fill="#232C54"/>
<path fill-rule="evenodd" clip-rule="evenodd" d="M16.87 5.84999C16.87 6.04999 16.45 6.20999 15.92 6.20999C15.39 6.20999 14.97 6.04999 14.97 5.84999C14.97 5.64999 15.39 5.48999 15.92 5.48999C16.45 5.48999 16.87 5.64999 16.87 5.84999Z" fill="#FFFFFE"/>
<path fill-rule="evenodd" clip-rule="evenodd" d="M8.63 16.23C8.71 16.05 8.84 15.91 8.94 15.69C9.64 14.25 7 12.66 7.69 11.22C8.09 10.37 9.33 10.43 9.85 9.67003C10.2 9.15003 10.1 8.42003 10.15 7.77003C10.24 6.46003 11.03 5.25003 12.15 4.72003C12.84 5.29003 13.78 5.89003 14.51 5.42003C14.76 5.26003 14.93 5.00003 15.09 4.75003C15.52 4.09003 15.96 3.39003 16.61 2.97003C17.26 2.56003 18.2 2.51003 18.74 3.11003C19.17 3.59003 19.27 4.36003 19.76 4.76003C20.67 5.50003 22.02 4.41003 23.06 4.92003C23.79 5.28003 24.03 6.28003 24.06 7.13003C24.08 7.70003 24.16 8.43003 24.67 8.60003C24.87 8.67003 25.08 8.62003 25.29 8.65003C25.89 8.75003 26.19 9.48003 26.36 10.1C26.64 11.12 26.86 12.32 26.23 13.12C26.08 13.31 25.88 13.46 25.65 13.5C25.04 13.59 24.6 12.89 24.06 12.55C23.57 12.24 22.92 12.24 22.44 12.56C22.14 12.76 21.91 13.07 21.56 13.16C20.96 13.31 20.4 12.71 19.79 12.64C18.73 12.53 18.26 13.76 17.45 14.17C16.67 14.56 15.61 13.84 14.96 14.42C14.83 14.53 14.75 14.69 14.68 14.85C14.19 15.9 13.93 17.04 13.47 18.11C13.26 18.6 13.03 19.01 12.67 19.4C12.41 19.69 12.32 20.35 11.81 20.28C11.55 20.25 11.24 20.16 10.98 20.09C10.36 19.92 9.78 19.58 9.35 19.1C8.94 18.64 8.67 18.06 8.56 17.46C8.5 17.14 8.49 16.82 8.53 16.5C8.54 16.39 8.57 16.3 8.61 16.21L8.63 16.23Z" fill="#232C54"/>
<path fill-rule="evenodd" clip-rule="evenodd" d="M17.34 6.09003C12.36 8.26003 11.3 12.25 11.3 12.25C11.3 12.25 11.3 12.25 11.31 12.25L11.27 12.4C9.44999 12.92 8.12999 15.14 8.22999 17.76C8.32999 20.71 10.19 23.03 12.37 22.96C14.55 22.88 16.24 20.43 16.14 17.49C16.08 15.63 15.31 14.02 14.21 13.1V13.07C14.87 10.92 16.45 9.40003 17.99 8.37003C18.03 8.34003 18.06 8.32003 18.1 8.30003C18.14 8.28003 18.17 8.25003 18.21 8.23003C20.19 6.98003 21.77 7.49003 21.77 7.49003L21.74 6.59003C20.44 6.14003 17.36 6.09003 17.36 6.09003H17.34Z" fill="#F8D621"/>
<path fill-rule="evenodd" clip-rule="evenodd" d="M10.75 15.08C10.75 15.08 9.1 17.52 10.26 20.6C10.26 20.6 10.67 20.82 11.27 20.82C11.27 20.82 10.7 18.57 11.03 18.35C11.18 18.25 11.71 18.33 11.91 18.3C12.23 18.24 12.56 18.12 12.77 17.86C13.27 17.27 13.22 16.25 12.8 15.63C12.58 15.31 12.25 15.08 11.88 14.98C11.57 14.9 11.01 14.86 10.75 15.09V15.08Z" fill="#FFFFFE"/>
<path fill-rule="evenodd" clip-rule="evenodd" d="M11.35 16.25C11.35 16.25 11.06 16.98 11.05 16.99C11.01 17.09 11.53 17.17 11.58 17.15C11.68 17.11 11.77 17.04 11.83 16.95C11.9 16.84 11.94 16.71 11.92 16.58C11.87 16.33 11.56 16.28 11.35 16.25Z" fill="#6AC5F7"/>
<path fill-rule="evenodd" clip-rule="evenodd" d="M25.78 14.25C25.78 14.25 29.2 18.73 25.29 22.13C25.38 22.05 25.49 21.17 25.53 21.01C25.67 20.44 25.76 19.84 25.82 19.24C25.92 18.09 25.94 16.99 25.86 15.85C25.82 15.27 25.66 14.8 25.8 14.24L25.78 14.25Z" fill="#F8D621"/>
<path fill-rule="evenodd" clip-rule="evenodd" d="M25.84 15.28C25.15 15.31 24.45 15.32 23.76 15.36C23.21 15.4 22.96 15.7 22.77 16.19C22.69 16.39 23.01 16.48 23.09 16.28C23.1 16.25 23.12 16.21 23.13 16.18L24.93 15.69C25.24 15.66 25.54 15.63 25.85 15.61C26.06 15.59 26.07 15.27 25.85 15.28H25.84Z" fill="#232C54"/>
<path fill-rule="evenodd" clip-rule="evenodd" d="M20.53 15.31C20.27 15.11 19.93 15.13 19.63 15.15C18.81 15.2 17.98 15.24 17.16 15.29C16.95 15.3 16.94 15.63 17.16 15.62C17.51 15.62 17.86 15.61 18.22 15.6L20.54 15.93C20.54 15.93 20.56 15.98 20.56 16C20.62 16.21 20.94 16.12 20.88 15.91C20.81 15.68 20.73 15.45 20.54 15.29L20.53 15.31Z" fill="#232C54"/>
</g>
<defs>
<clipPath id="clip0_606_7752">
<rect width="32" height="32" fill="white"/>
</clipPath>
</defs>
</svg>
